X:1
T:Title
%%score { ( 1 3 ) | ( 2 4 ) }
L:1/8
M:6/8
K:A
V:1 treble nm="Grand Piano"
V:3 treble 
V:2 bass 
V:4 bass 
V:1
 z3 z2[Q:1/4=100] [CA]/[DB]/ | [Ec]>[Ec][Ec] [Fd]>[Fd][Fd] | [Ec]3 [CA]2 [CA] | B>BB B>cB | %4
 A3 z2 [CA]/[DB]/ | c>de A>Bc |[M:5/8] [DFB]3 [A,DF]2 |[M:1/8] [CEA] | %8
[M:3/4] [B,EG]>[B,EG] [B,EG][A,^DF]- [A,DF]/[B,EG]/[A,DF] |[M:5/8] [G,E]-[G,E]- [G,E]3 | %10
[M:1/8] E/E/ |[M:3/4] e>d cB- B/c/B | [CA]3 [CE]2 [CA]/B/ | c>c cc- c/B/A | [GB]4- [GB][GB]/[GB]/ | %15
 c>d eA- A/B/c | [FB]3 [DF]2 A/B/ | c>c cB- B/c/B |[M:5/8] [CA]-[CA]- [CA]3 |] %19
V:2
 z3 z2 [A,,A,]/[A,,A,]/ | [A,,A,]>[A,,A,][A,,A,] [A,,A,]>[A,,A,][A,,A,] | %2
 [A,,A,]3 [A,,A,]2 [A,,A,] | [E,G,D]>[E,G,D][E,G,D] [E,G,D]>[E,G,E][E,G,D] | %4
 z3 E2 [A,,A,]/[A,,A,]/ | [A,E]>[A,B,E][A,CE] [A,CE]>[A,DE][A,E] |[M:5/8] D,3 D,2 |[M:1/8] A,, | %8
[M:3/4] B,,>B,, B,,B,,- B,,/B,,/B,, |[M:5/8] E,-E,- E,3 |[M:1/8] E,/E,/ | %11
[M:3/4] [E,CE]>[E,B,E] [E,A,E][E,G,D]- [E,G,D]/[E,G,E]/[E,G,D] | z2 z2 z A, | %13
 [A,E]>[A,E] [A,E][F,A,F]- [F,A,F]/[F,B,F]/[F,CF] | [E,E]4- [E,E][E,G,]/[E,G,]/ | %15
 [A,E]>[A,B,E] [A,CE][A,CE]- [A,CE]/[A,DE]/[A,E] | [D,D]3 [D,A,]2 [D,A,] | %17
 [E,A,E]>[E,A,E] [E,A,E][E,G,D]- [E,G,D]/[E,G,E]/[E,G,D] |[M:5/8] [A,,A,]-[A,,A,]- [A,,A,]3 |] %19
V:3
 x6 | x6 | x6 | x6 | [A,C]6 | x6 |[M:5/8] x5 |[M:1/8] x |[M:3/4] x6 |[M:5/8] x5 |[M:1/8] x | %11
[M:3/4] x6 | x6 | x6 | x6 | x6 | z2 z2 z F | x6 |[M:5/8] x5 |] %19
V:4
 x6 | x6 | x6 | x6 | A,,6 | x6 |[M:5/8] x5 |[M:1/8] x |[M:3/4] x6 |[M:5/8] x5 |[M:1/8] x | %11
[M:3/4] x6 | [A,,A,]3 [A,,A,]2 z/ D/ | x6 | x6 | x6 | x6 | x6 |[M:5/8] x5 |] %19

